icons/evolvere-blue-folders-flat-vivid-dark-fallback/apps/64/cmplayer.svg

<?xml version="1.0" encoding="UTF-8" standalone="no"?>
<!-- Created with Inkscape (http://www.inkscape.org/) -->

<svg
   xmlns:dc="http://purl.org/dc/elements/1.1/"
   xmlns:cc="http://creativecommons.org/ns#"
   xmlns:rdf="http://www.w3.org/1999/02/22-rdf-syntax-ns#"
   xmlns:svg="http://www.w3.org/2000/svg"
   xmlns="http://www.w3.org/2000/svg"
   xmlns:xlink="http://www.w3.org/1999/xlink"
   xmlns:sodipodi="http://sodipodi.sourceforge.net/DTD/sodipodi-0.dtd"
   xmlns:inkscape="http://www.inkscape.org/namespaces/inkscape"
   width="64"
   height="64"
   id="svg13094"
   version="1.1"
   inkscape:version="0.91+devel r"
   sodipodi:docname="cmplayer.svg">
  <sodipodi:namedview
     id="base"
     pagecolor="#ffffff"
     bordercolor="#666666"
     borderopacity="1.0"
     inkscape:pageopacity="0"
     inkscape:pageshadow="2"
     inkscape:zoom="11.313709"
     inkscape:cx="28.460651"
     inkscape:cy="32.432156"
     inkscape:document-units="px"
     inkscape:current-layer="svg13094"
     showgrid="true"
     inkscape:snap-bbox="true"
     inkscape:bbox-paths="true"
     inkscape:bbox-nodes="true"
     inkscape:snap-bbox-edge-midpoints="true"
     inkscape:snap-bbox-midpoints="true"
     inkscape:object-paths="true"
     inkscape:snap-intersection-paths="true"
     inkscape:object-nodes="true"
     inkscape:snap-smooth-nodes="true"
     inkscape:snap-midpoints="true"
     inkscape:snap-object-midpoints="true"
     inkscape:snap-center="true"
     showguides="true"
     inkscape:guide-bbox="true"
     inkscape:window-width="1920"
     inkscape:window-height="1023"
     inkscape:window-x="-10"
     inkscape:window-y="35"
     inkscape:window-maximized="1"
     inkscape:snap-global="false"
     fit-margin-top="0"
     fit-margin-left="0"
     fit-margin-right="0"
     fit-margin-bottom="0"
     showborder="true"
     inkscape:showpageshadow="false"
     inkscape:snap-page="true">
    <inkscape:grid
       type="xygrid"
       id="grid3075"
       empspacing="5"
       visible="true"
       enabled="true"
       snapvisiblegridlinesonly="true"
       originx="1.6362304e-08px"
       originy="18px" />
  </sodipodi:namedview>
  <defs
     id="defs13096">
    <linearGradient
       id="linearGradient3800-4">
      <stop
         style="stop-color:#44ecff;stop-opacity:0.22495152;"
         offset="0"
         id="stop3802-0" />
      <stop
         id="stop3808-7"
         offset="0.5"
         style="stop-color:#4aefff;stop-opacity:0.11829347;" />
      <stop
         style="stop-color:#6af4ff;stop-opacity:0.05042017;"
         offset="0.75"
         id="stop3810-8" />
      <stop
         style="stop-color:#4df5ff;stop-opacity:0;"
         offset="1"
         id="stop3804-9" />
    </linearGradient>
    <radialGradient
       inkscape:collect="always"
       xlink:href="#linearGradient3800-4"
       id="radialGradient4134"
       gradientUnits="userSpaceOnUse"
       gradientTransform="matrix(1.5610684,1.5204966e-8,0,0.18746473,-11.770879,26.369264)"
       cx="26.311583"
       cy="42.442974"
       fx="26.311583"
       fy="42.442974"
       r="32" />
    <radialGradient
       inkscape:collect="always"
       xlink:href="#linearGradient3800-4"
       id="radialGradient4137"
       gradientUnits="userSpaceOnUse"
       gradientTransform="matrix(0.6161622,0,0,0.84635893,9.212107,5.1265794)"
       cx="21.274454"
       cy="32.828899"
       fx="21.274454"
       fy="32.828899"
       r="32" />
  </defs>
  <metadata
     id="metadata13099">
    <rdf:RDF>
      <cc:Work
         rdf:about="">
        <dc:format>image/svg+xml</dc:format>
        <dc:type
           rdf:resource="http://purl.org/dc/dcmitype/StillImage" />
        <dc:title></dc:title>
      </cc:Work>
    </rdf:RDF>
  </metadata>
  <path
     inkscape:connector-curvature="0"
     style="color:#000000;fill:url(#radialGradient4137);fill-opacity:1;fill-rule:nonzero;stroke:none;stroke-width:2.28571415;marker:none;visibility:visible;display:inline;overflow:visible;enable-background:accumulate"
     d="M 0,4.0000001 0,34 l 0,28 2,2 30,0 30,0 2,-2 0,-28 0,-29.9999999 -32,0 -32,0 z"
     id="path3812" />
  <path
     id="path4095"
     d="m 0,4 0,30 0,28 2,2 30,0 30,0 2,-2 L 64,34 64,4 32,4 0,4 z"
     style="color:#000000;fill:url(#radialGradient4134);fill-opacity:1;fill-rule:nonzero;stroke:none;stroke-width:2.28571415;marker:none;visibility:visible;display:inline;overflow:visible;enable-background:accumulate"
     inkscape:connector-curvature="0" />
  <path
     id="path5441"
     d="m 0,4 0,30 0,28 2,2 30,0 30,0 2,-2 L 64,34 64,4 32,4 0,4 z"
     style="color:#000000;fill:#0f94af;fill-opacity:1;fill-rule:nonzero;stroke:none;stroke-width:2.28571415;marker:none;visibility:visible;display:inline;overflow:visible;enable-background:accumulate"
     inkscape:connector-curvature="0" />
  <path
     inkscape:connector-curvature="0"
     style="color:#000000;fill:#3ccde9;fill-opacity:1;fill-rule:nonzero;stroke:none;stroke-width:2.28571415;marker:none;visibility:visible;display:inline;overflow:visible;enable-background:accumulate"
     d="M 2,0 0,1 0,4 32,4 64,4 64,1 62,0 32,0 2,0 z"
     id="path4090" />
  <path
     style="fill:#5cdbf3;fill-opacity:1;fill-rule:nonzero"
     d="M 0,3 0,6 2,4 Z"
     id="path4298"
     inkscape:connector-curvature="0"
     sodipodi:nodetypes="cccc" />
  <path
     d="M 64,6 62,4 64,3 z"
     id="path3028"
     style="fill:#25afca;fill-opacity:1"
     inkscape:connector-curvature="0" />
  <g
     id="g3043"
     inkscape:export-filename="folder.png"
     inkscape:export-xdpi="90"
     inkscape:export-ydpi="90"
     transform="translate(-0.62500009,0.082283)" />
  <g
     id="scalable"
     transform="matrix(1.0385892,0,0,1.0385892,1214.7222,1878.8121)"
     inkscape:label="#g3701"
     style="fill:#ffffff" />
  <path
     inkscape:connector-curvature="0"
     id="path3427"
     d="m 15.296875,21.697901 c -3.10966,0.286671 -4.89968,4.012953 -6.1875,11.15625 6.39777,-8.845003 8.61493,-5.637726 22.875,1.15625 -7.96857,-8.537435 -13.16322,-12.637393 -16.6875,-12.3125 z m 16.6875,12.3125 c 14.26007,-6.793976 16.50848,-10.001253 22.90625,-1.15625 -2.74734,-15.239033 -7.90659,-14.914216 -22.90625,1.15625 z m 0,0 c 14.99966,16.07047 20.15891,16.36403 22.90625,1.125 -6.39777,8.845 -8.64618,5.66898 -22.90625,-1.125 z m 0,0 c -14.26007,6.79398 -16.47723,9.97 -22.875,1.125 2.74734,15.23903 7.87534,14.94547 22.875,-1.125 z"
     style="color:#000000;fill:#9af6ff;fill-opacity:1;fill-rule:nonzero;stroke:none;stroke-width:0.89999998;marker:none;visibility:visible;display:inline;overflow:visible;enable-background:accumulate" />
</svg>

<svg xmlns="http://www.w3.org/2000/svg" xmlns:xlink="http://www.w3.org/1999/xlink" viewBox="0 0 64 64"><defs><path id="3" d="m0 4v30 28l2 2h30 30l2-2v-28-30h-32-32"/><linearGradient id="0"><stop stop-color="#44ecff" stop-opacity=".225"/><stop offset=".5" stop-color="#4aefff" stop-opacity=".118"/><stop offset=".75" stop-color="#6af4ff" stop-opacity=".05"/><stop offset="1" stop-color="#4df5ff" stop-opacity="0"/></linearGradient><radialGradient xlink:href="#0" id="1" gradientUnits="userSpaceOnUse" gradientTransform="matrix(1.56107 0 0 .18746-11.771 26.369)" cx="26.312" cy="42.44" r="32"/><radialGradient xlink:href="#0" id="2" gradientUnits="userSpaceOnUse" gradientTransform="matrix(.61616 0 0 .84636 9.212 5.127)" cx="21.274" cy="32.829" r="32"/></defs><g color="#000"><use fill="url(#2)" xlink:href="#3"/><use fill="url(#1)" xlink:href="#3"/><use fill="#0f94af" xlink:href="#3"/><path d="m2 0l-2 1v3h32 32v-3l-2-1h-30-30" fill="#3ccde9"/></g><path d="m0 3v3l2-2" fill="#5cdbf3"/><path d="m64 6l-2-2 2-1z" fill="#25afca"/><path d="m15.297 21.698c-3.11.287-4.9 4.01-6.188 11.156 6.398-8.845 8.615-5.638 22.875 1.156-7.969-8.537-13.163-12.637-16.688-12.313m16.688 12.313c14.26-6.794 16.508-10 22.906-1.156-2.747-15.239-7.907-14.914-22.906 1.156m0 0c15 16.07 20.16 16.364 22.906 1.125-6.398 8.845-8.646 5.669-22.906-1.125m0 0c-14.26 6.794-16.477 9.97-22.875 1.125 2.747 15.239 7.875 14.945 22.875-1.125" fill="#9af6ff" color="#000"/></svg>
